_includes/glyphs/logo.svg

<?xml version="1.0" encoding="UTF-8"?>
<svg width="255px" height="333px" viewBox="0 0 255 333" version="1.1" xmlns="http://www.w3.org/2000/svg" xmlns:xlink="http://www.w3.org/1999/xlink">
    <title>logo</title>
    <g id="logo" stroke="none" stroke-width="1" fill="none" fill-rule="evenodd">
        <path d="M119.3322,156.3666 L117.2752,131.6776 C95.4592,131.6776 74.4502,143.1706 61.7232,160.6256 C48.9972,143.1706 27.9872,131.6776 6.1722,131.6776 L4.1152,156.3666 C29.0732,156.3666 49.3782,174.8256 49.3782,197.5156 L74.0682,197.5156 C74.0682,174.8256 94.3742,156.3666 119.3322,156.3666" id="Fill-1" fill="#000105"></path>
        <path d="M45.2643,78.1835 C61.7233,78.1835 65.8383,82.2985 65.8383,86.4125 C65.8383,90.5285 61.7233,94.6415 45.2643,94.6415 C28.8043,94.6415 24.6893,90.5285 24.6893,86.4125 C24.6893,82.2985 28.8043,78.1835 45.2643,78.1835 M45.2643,119.3305 C71.0123,119.3305 84.1303,109.2525 88.6433,96.9905 C89.8323,96.8195 91.1463,96.7005 92.5853,96.7005 C93.3023,96.7005 93.9843,96.7335 94.6433,96.7825 L94.6433,113.1605 L119.3323,115.2175 L119.3323,28.8045 C119.3323,16.4595 121.3893,4.1155 121.3893,4.1155 L94.6433,4.1155 L94.6433,76.0435 C93.9843,76.0925 93.3023,76.1265 92.5853,76.1265 C91.1463,76.1265 89.8333,76.0075 88.6433,75.8355 C84.1313,63.5745 71.0113,53.4945 45.2643,53.4945 C12.3463,53.4945 0.0033,69.9535 0.0013,86.4125 C-0.0007,102.8725 12.3443,119.3305 45.2643,119.3305" id="Fill-3" fill="#000105"></path>
        <path d="M193.401,24.6913 C221.176,24.6913 230.435,28.3753 230.435,32.9203 C230.435,37.4653 221.176,41.1493 193.401,41.1493 C165.625,41.1493 156.367,37.4653 156.367,32.9203 C156.367,28.3753 165.625,24.6913 193.401,24.6913 M193.402,65.8383 C241.41,65.8383 255.126,51.1013 255.126,32.9203 C255.126,14.7403 241.41,0.0023 193.402,0.0023 C145.395,0.0023 131.678,14.7403 131.678,32.9203 C131.678,51.1013 145.395,65.8383 193.402,65.8383" id="Fill-5" fill="#000105"></path>
        <path d="M190.0739,79.9789 C171.8389,84.0569 167.2489,90.1389 169.0869,95.9649 C170.9239,101.7909 178.4909,105.1549 196.7269,101.0769 C214.9629,96.9999 219.5529,90.9169 217.7159,85.0909 C215.8779,79.2649 208.3099,75.9009 190.0739,79.9789" id="Fill-7" fill="#000105"></path>
        <path d="M193.401,164.9496 C206.127,184.5866 227.137,197.5156 248.952,197.5156 L251.009,172.8266 C229.736,172.8266 211.892,156.7126 207.072,135.1006 C233.861,133.8566 251.009,133.7346 251.009,133.7346 L251.009,106.9876 C251.009,106.9876 227.349,111.2796 192.837,113.1756 C158.323,115.0726 135.792,115.2176 135.792,115.2176 L135.792,139.9076 C135.792,139.9076 152.791,138.2776 179.372,136.6176 C174.069,157.4616 156.565,172.8266 135.792,172.8266 L137.849,197.5156 C159.665,197.5156 180.674,184.5866 193.401,164.9496" id="Fill-9" fill="#000105"></path>
        <path d="M41.149,37.034 C41.149,37.034 32.919,16.46 28.804,0 L0,4.115 L16.46,41.149 L41.149,37.034 Z" id="Fill-11" fill="#000105"></path>
        <path d="M82.298,37.034 C82.298,37.034 74.069,16.46 69.953,0 L41.149,4.115 L57.609,41.149 L82.298,37.034 Z" id="Fill-13" fill="#000105"></path>
        <path d="M132.9069,274.5785 C132.9069,276.9055 131.3989,278.9255 128.3529,278.9255 L124.7579,278.9255 L124.7579,262.9005 L128.3529,262.9005 C131.3659,262.9005 132.9069,265.1285 132.9069,267.4225 L132.9069,274.5785 Z M128.3529,258.9285 L120.3409,258.9285 L120.3409,282.8985 L128.3529,282.8985 C133.7979,282.8985 137.4609,279.4385 137.4609,274.5105 L137.4609,267.4905 C137.4609,262.5585 133.7979,258.9285 128.3529,258.9285 L128.3529,258.9285 Z" id="Fill-15" fill="#000105"></path>
        <path d="M156.7389,274.475 C156.7389,276.805 155.2329,278.961 152.1849,278.961 C149.1379,278.961 147.6309,276.805 147.6309,274.475 L147.6309,267.352 C147.6309,265.06 149.1729,262.869 152.1849,262.869 C155.1989,262.869 156.7389,265.06 156.7389,267.352 L156.7389,274.475 Z M152.1849,258.486 C146.7419,258.486 143.0769,262.181 143.0769,267.113 L143.0769,274.714 C143.0769,279.645 146.7419,283.344 152.1849,283.344 C157.6299,283.344 161.2949,279.645 161.2949,274.714 L161.2949,267.113 C161.2949,262.181 157.6299,258.486 152.1849,258.486 L152.1849,258.486 Z" id="Fill-17" fill="#000105"></path>
        <polygon id="Fill-19" fill="#000105" points="175.5387 276.9759 175.2987 276.9759 170.1977 258.9279 165.1647 258.9279 172.5947 282.8989 178.2097 282.8989 185.7427 258.9279 180.7437 258.9279"></polygon>
        <polygon id="Fill-21" fill="#000105" points="190.0582 262.9007 196.4272 262.9007 196.4272 278.9247 190.0582 278.9247 190.0582 282.8987 207.4532 282.8987 207.4532 278.9247 200.9812 278.9247 200.9812 262.9007 207.4532 262.9007 207.4532 258.9277 190.0582 258.9277"></polygon>
        <polygon id="Fill-23" fill="#000105" points="218.0006 258.9281 213.4436 258.9281 213.4436 282.8991 230.6346 282.8991 230.6346 278.7541 218.0006 278.7541"></polygon>
        <polygon id="Fill-25" fill="#000105" points="251.0309 278.9613 240.4849 278.9613 240.4849 272.7293 249.2169 272.7293 249.2169 268.8263 240.4849 268.8263 240.4849 262.8683 250.6879 262.8683 250.6879 258.9283 235.9649 258.9283 235.9649 282.8993 251.0309 282.8993"></polygon>
        <path d="M241.0328,253.7933 C241.0328,255.3003 242.0938,256.3943 243.6688,256.3943 C245.3128,256.3943 246.3748,255.3003 246.3748,253.7933 C246.3748,252.3543 245.3128,251.2243 243.6688,251.2243 C242.0938,251.2243 241.0328,252.3543 241.0328,253.7933" id="Fill-27" fill="#000105"></path>
        <path d="M13.2472,312.9867 C16.1242,312.9867 17.6302,314.9357 17.8012,317.1277 L22.3562,317.1277 C22.1842,312.0597 18.5552,308.6027 13.2472,308.6027 C7.8042,308.6027 4.1392,312.2997 4.1392,317.2307 L4.1392,324.8317 C4.1392,329.7627 7.8042,333.4617 13.2472,333.4617 C18.5202,333.4617 22.1842,330.0377 22.3562,324.9697 L17.8012,324.9697 C17.6302,327.1937 16.1242,329.0787 13.2472,329.0787 C10.2002,329.0787 8.6932,326.9227 8.6932,324.5917 L8.6932,317.4687 C8.6932,315.1777 10.2342,312.9867 13.2472,312.9867" id="Fill-29" fill="#000105"></path>
        <polygon id="Fill-31" fill="#000105" points="27.8351 313.0189 34.2031 313.0189 34.2031 329.0429 27.8351 329.0429 27.8351 333.0159 45.2301 333.0159 45.2301 329.0429 38.7591 329.0429 38.7591 313.0189 45.2301 313.0189 45.2301 309.0449 27.8351 309.0449"></polygon>
        <path d="M59.7491,329.1468 L55.6741,329.1468 L55.6741,322.2978 L59.5781,322.2978 C61.6661,322.2978 63.5161,323.3278 63.5161,325.6898 C63.5161,328.0518 61.9401,329.1468 59.7491,329.1468 L59.7491,329.1468 Z M55.6741,312.8118 L59.6811,312.8118 C61.6661,312.8118 63.0361,314.0128 63.0361,315.7918 C63.0361,317.6408 61.7351,318.9088 59.6121,318.9088 L55.6741,318.9088 L55.6741,312.8118 Z M64.7141,320.5188 L64.7141,320.3128 C66.4601,319.3188 67.5221,317.5408 67.5221,315.3488 C67.5221,311.7528 64.8161,309.0448 60.1601,309.0448 L51.3251,309.0448 L51.3251,333.0158 L60.8451,333.0158 C64.8521,333.0158 68.3101,330.4828 68.3101,326.0648 C68.3101,322.8818 66.2901,321.1678 64.7141,320.5188 L64.7141,320.5188 Z" id="Fill-33" fill="#000105"></path>
        <path d="M88.0675,324.0111 C88.0675,327.2301 86.3555,329.1821 83.1015,329.1821 C79.8505,329.1821 78.1715,327.2301 78.1715,324.0441 L78.1715,309.0451 L73.6175,309.0451 L73.6175,324.0791 C73.6175,329.6961 77.2475,333.4611 83.1015,333.4611 C88.9245,333.4611 92.5875,329.6591 92.5875,324.0441 L92.5875,309.0451 L88.0675,309.0451 L88.0675,324.0111 Z" id="Fill-35" fill="#000105"></path>
        <polygon id="Fill-37" fill="#000105" points="102.3478 309.0453 97.7918 309.0453 97.7918 333.0163 114.9818 333.0163 114.9818 328.8723 102.3478 328.8723"></polygon>
        <path d="M124.2413,315.4496 C124.2413,313.9446 125.4743,312.6766 128.0073,312.6766 C130.5743,312.6766 131.9793,314.0126 132.0143,315.9976 L136.5693,315.9976 C136.4313,310.9986 132.5623,308.6026 128.0073,308.6026 C122.7343,308.6026 119.7203,311.7186 119.7203,315.5196 C119.7203,325.3116 132.4583,320.8936 132.4583,326.3746 C132.4583,328.1876 130.8153,329.2856 128.2463,329.2856 C125.2333,329.2856 123.4533,327.6066 123.4193,325.4476 L119.0013,325.4476 C119.0013,330.2086 122.6323,333.4616 128.1113,333.4616 C133.8623,333.4616 137.1493,330.2756 137.1493,326.0316 C137.1493,316.3406 124.2413,320.4486 124.2413,315.4496" id="Fill-39" fill="#000105"></path>
        <polygon id="Fill-41" fill="#000105" points="160.5397 309.0453 154.9237 309.0453 146.7057 319.1483 146.4997 319.1483 146.4997 309.0453 141.9457 309.0453 141.9457 333.0163 146.4997 333.0163 146.4997 325.5513 149.2057 322.3653 155.4357 333.0163 160.7797 333.0163 152.3217 318.7023"></polygon>
        <path d="M171.2574,324.2152 L174.4424,314.0132 L174.7164,314.0132 L177.8654,324.2152 L171.2574,324.2152 Z M171.7714,309.0452 L163.8614,333.0162 L168.5184,333.0162 L169.9904,328.2912 L179.1334,328.2912 L180.6054,333.0162 L185.4334,333.0162 L177.4894,309.0452 L171.7714,309.0452 Z" id="Fill-43" fill="#000105"></path>
        <polygon id="Fill-45" fill="#000105" points="189.235 313.0189 195.603 313.0189 195.603 329.0429 189.235 329.0429 189.235 333.0159 206.631 333.0159 206.631 329.0429 200.159 329.0429 200.159 313.0189 206.631 313.0189 206.631 309.0449 189.235 309.0449"></polygon>
        <polygon id="Fill-47" fill="#000105" points="211.8004 313.0541 218.9234 313.0541 218.9234 333.0161 223.4774 333.0161 223.4774 313.0541 230.6344 313.0541 230.6344 309.0451 211.8004 309.0451"></polygon>
        <path d="M241.0348,303.9105 C241.0348,305.4175 242.0958,306.5125 243.6708,306.5125 C245.3138,306.5125 246.3768,305.4175 246.3768,303.9105 C246.3768,302.4715 245.3138,301.3415 243.6708,301.3415 C242.0958,301.3415 241.0348,302.4715 241.0348,303.9105" id="Fill-49" fill="#000105"></path>
        <polygon id="Fill-51" fill="#000105" points="240.486 322.8461 249.218 322.8461 249.218 318.9451 240.486 318.9451 240.486 312.9871 250.69 312.9871 250.69 309.0451 235.966 309.0451 235.966 333.0161 251.034 333.0161 251.034 329.0781 240.486 329.0781"></polygon>
    </g>
</svg>

<svg width="255" height="333" viewBox="0 0 255 333" xmlns="http://www.w3.org/2000/svg">
  <path d="m119.332 156.367-2.057-24.69c-21.816 0-42.825 11.494-55.552 28.949-12.726-17.455-33.736-28.948-55.55-28.948l-2.058 24.689c24.958 0 45.263 18.459 45.263 41.149h24.69c0-22.69 20.306-41.15 45.264-41.15M45.264 78.183c16.46 0 20.574 4.115 20.574 8.23s-4.115 8.228-20.574 8.228c-16.46 0-20.575-4.113-20.575-8.229 0-4.114 4.115-8.229 20.575-8.229m0 41.147c25.748 0 38.866-10.078 43.38-22.34a27.552 27.552 0 0 1 3.941-.29c.717 0 1.4.034 2.058.082v16.379l24.69 2.056V28.805c0-12.346 2.056-24.69 2.056-24.69H94.643v71.928c-.659.05-1.34.083-2.058.083-1.439 0-2.752-.119-3.942-.29-4.512-12.261-17.632-22.341-43.379-22.341-32.918 0-45.26 16.459-45.263 32.917C0 102.873 12.344 119.33 45.264 119.33M193.401 24.691c27.775 0 37.034 3.684 37.034 8.23 0 4.544-9.259 8.228-37.034 8.228-27.776 0-37.034-3.684-37.034-8.229 0-4.545 9.258-8.229 37.034-8.229m.001 41.147c48.008 0 61.724-14.737 61.724-32.918 0-18.18-13.716-32.918-61.724-32.918-48.007 0-61.724 14.738-61.724 32.918 0 18.181 13.717 32.918 61.724 32.918M190.074 79.979c-18.235 4.078-22.825 10.16-20.987 15.986 1.837 5.826 9.404 9.19 27.64 5.112 18.236-4.077 22.826-10.16 20.989-15.986-1.838-5.826-9.406-9.19-27.642-5.112M193.401 164.95c12.726 19.637 33.736 32.566 55.551 32.566l2.057-24.69c-21.273 0-39.117-16.113-43.937-37.725 26.789-1.244 43.937-1.366 43.937-1.366v-26.747s-23.66 4.292-58.172 6.188c-34.514 1.897-57.045 2.042-57.045 2.042v24.69s16.999-1.63 43.58-3.29c-5.303 20.844-22.807 36.209-43.58 36.209l2.057 24.689c21.816 0 42.825-12.93 55.552-32.566M41.149 37.034S32.919 16.46 28.804 0L0 4.115l16.46 37.034 24.689-4.115Z"/>
  <path d="M82.298 37.034S74.069 16.46 69.953 0L41.149 4.115l16.46 37.034 24.689-4.115ZM132.907 274.579c0 2.327-1.508 4.346-4.554 4.346h-3.595v-16.024h3.595c3.013 0 4.554 2.227 4.554 4.522v7.156Zm-4.554-15.65h-8.012v23.97h8.012c5.445 0 9.108-3.46 9.108-8.389v-7.02c0-4.932-3.663-8.562-9.108-8.562ZM156.739 274.475c0 2.33-1.506 4.486-4.554 4.486-3.047 0-4.554-2.156-4.554-4.486v-7.123c0-2.292 1.542-4.483 4.554-4.483 3.014 0 4.554 2.191 4.554 4.483v7.123Zm-4.554-15.989c-5.443 0-9.108 3.695-9.108 8.627v7.601c0 4.931 3.665 8.63 9.108 8.63 5.445 0 9.11-3.699 9.11-8.63v-7.601c0-4.932-3.665-8.627-9.11-8.627ZM175.539 276.976h-.24l-5.101-18.048h-5.033l7.43 23.971h5.615l7.533-23.971h-4.999zM190.058 262.901h6.369v16.024h-6.369v3.974h17.395v-3.974h-6.472v-16.024h6.472v-3.973h-17.395zM218.001 258.928h-4.557v23.971h17.191v-4.145h-12.634zM251.031 278.961h-10.546v-6.232h8.732v-3.903h-8.732v-5.958h10.203v-3.94h-14.723v23.971h15.066zM241.033 253.793c0 1.507 1.06 2.601 2.636 2.601 1.644 0 2.706-1.094 2.706-2.6 0-1.44-1.062-2.57-2.706-2.57-1.575 0-2.636 1.13-2.636 2.57M13.247 312.987c2.877 0 4.383 1.949 4.554 4.14h4.555c-.172-5.067-3.8-8.524-9.109-8.524-5.443 0-9.108 3.697-9.108 8.628v7.6c0 4.932 3.665 8.63 9.108 8.63 5.273 0 8.937-3.423 9.11-8.491H17.8c-.17 2.224-1.677 4.109-4.554 4.109-3.047 0-4.554-2.156-4.554-4.487v-7.123c0-2.291 1.541-4.482 4.554-4.482M27.835 313.019h6.368v16.024h-6.368v3.973H45.23v-3.973h-6.471v-16.024h6.471v-3.974H27.835zM59.75 329.147h-4.076v-6.85h3.904c2.088 0 3.938 1.03 3.938 3.393 0 2.362-1.576 3.457-3.767 3.457Zm-4.076-16.335h4.007c1.985 0 3.355 1.2 3.355 2.98 0 1.849-1.3 3.117-3.424 3.117h-3.938v-6.097Zm9.04 7.707v-.206c1.746-.994 2.808-2.772 2.808-4.964 0-3.596-2.706-6.304-7.362-6.304h-8.835v23.97h9.52c4.007 0 7.465-2.532 7.465-6.95 0-3.183-2.02-4.897-3.596-5.546ZM88.067 324.011c0 3.22-1.711 5.171-4.965 5.171-3.252 0-4.93-1.952-4.93-5.138v-14.999h-4.554v15.034c0 5.617 3.63 9.382 9.484 9.382 5.822 0 9.486-3.802 9.486-9.417v-14.999h-4.52v14.966ZM102.348 309.045h-4.556v23.971h17.19v-4.144h-12.634zM124.241 315.45c0-1.505 1.233-2.773 3.766-2.773 2.567 0 3.972 1.336 4.007 3.32h4.555c-.138-4.998-4.007-7.394-8.562-7.394-5.273 0-8.287 3.116-8.287 6.917 0 9.792 12.738 5.374 12.738 10.855 0 1.813-1.643 2.91-4.212 2.91-3.013 0-4.793-1.678-4.827-3.837h-4.418c0 4.76 3.631 8.014 9.11 8.014 5.751 0 9.038-3.186 9.038-7.43 0-9.691-12.908-5.583-12.908-10.582M160.54 309.045h-5.616l-8.218 10.103h-.206v-10.103h-4.554v23.971h4.554v-7.465l2.706-3.186 6.23 10.651h5.344l-8.458-14.314zM171.257 324.215l3.185-10.202h.274l3.15 10.202h-6.609Zm.514-15.17-7.91 23.971h4.657l1.472-4.725h9.143l1.472 4.725h4.828l-7.944-23.97h-5.718ZM189.235 313.019h6.368v16.024h-6.368v3.973h17.396v-3.973h-6.472v-16.024h6.472v-3.974h-17.396zM211.8 313.054h7.123v19.962h4.554v-19.962h7.157v-4.009H211.8zM241.035 303.91c0 1.507 1.06 2.602 2.636 2.602 1.643 0 2.706-1.094 2.706-2.601 0-1.44-1.063-2.57-2.706-2.57-1.575 0-2.636 1.13-2.636 2.57M240.486 322.846h8.732v-3.901h-8.732v-5.958h10.204v-3.942h-14.724v23.971h15.068v-3.938h-10.548z"/>
</svg>
